X:1
T:Trust
T:Trust
T:Lewi Pethrus
T:Lewi Pethrus, 1913-15, tr. Thoro Harris
T:Public Domain Courtesy of the Cyber Hymnal™
T:Public Domain Courtesy of the Cyber Hymnal™
C:Lewi Pethrus
Z:Public Domain
Z:Courtesy of the Cyber Hymnal™
%%score ( 1 2 ) ( 3 4 )
L:1/8
Q:1/4=100
M:6/8
K:Ab
V:1 treble 
V:2 treble 
V:3 bass 
V:4 bass 
V:1
 [Ec]>[Fd][Ec] [DB][Ec][DB] | [CA]3 [CE]3 | [DF]>[DF][DF] d2 [Fd] | [Ec]3- [Ec]2 z | %4
w: 1.~All that our Sav- ior hath|spok- en|Came from the heart of|God; *|
w: 2.~As un- to A- bram was|giv- en|God’s cov- ’nant word of|peace, *|
w: 3.~Trust when the light warm and|ten- der|Seem- eth to Thee with-|drawn; *|
w: 4.~Trust! tho’ all o- thers for-|sake thee,|Yet there re- mains one|friend; *|
w: 5.~Trust un- der ev- ery con-|di- tion|Till thou shalt reach thy|home; *|
 [Ec]>[Fd][Ec] [DB][Ec][DB] | [CA]3 [Ec]3 | [=DA][DG][DF] [DB]2 [B,D] | [B,E]3- [B,E]2 z || %8
w: Sure- ly it can- not be|brok- en,|Sealed with His pre- cious|blood. *|
w: “Count- ing the stars” of the|e- ven—|So shall thy faith in-|crease. *|
w: Wait a few hours, and in|splen- dor|Morn- ing a- gain will|dawn! *|
w: Mer- cy and truth shall o’er-|take thee|Down to thy jour- ney’s|end. *|
w: Trust, till in per- fect fru-|i- tion|That which is real hath|come. *|
"^Refrain" [Ec]>[Fc][Ec] [CA]2 [CE] | [=B,F]3 [CE]2 z | [Ec]>[Fc][Ec] [EA]2 E | [EA]3 [EG]2 z | %12
w: ||||
w: ||||
w: Tem- pests may rage and|thun- der,|Mount- ains be rent a-|sun- der,|
w: ||||
w: ||||
 [DG][EG][EA] [EB]2 [Ec] | [Fd]3 [DF]2 z | [DG]>[DF][DE] [Ec]2 [DB] | [CA]3- [CA]2 z |] %16
w: ||||
w: ||||
w: Na- tions may fear and|won- der—|Trust, and be un- dis-|mayed. *|
w: ||||
w: ||||
V:2
 x6 | x6 | x3 (F>G) x | x6 | x6 | x6 | x6 | x6 || x6 | x6 | x5 E | x6 | x6 | x6 | x6 | x6 |] %16
V:3
 A,>A,A, [E,G,][E,G,][E,G,] | [A,,A,]3 [A,,A,]3 | [D,A,]>[D,A,][D,A,] [D,A,]2 [F,A,] | A,3- A,2 z | %4
 A,>A,A, [E,G,][E,G,][E,G,] | [A,,A,]3 [A,,A,]3 | [B,,F,][B,,F,][B,,F,] [B,,F,]2 [B,,A,] | %7
 G,3- G,2 x || [A,,A,]>[A,,A,][A,,A,] [A,,E,]2 [A,,E,] | [A,,=D,]3 [A,,E,]2 z | %10
 [A,,A,]>[C,A,][E,A,] [A,C]2 [A,C] | [B,D]3 [B,D]2 z | [E,B,][D,B,][C,A,] [B,,G,]2 [A,,A,] | %13
 [D,A,]3 [D,B,]2 z | [E,B,]>[E,B,][E,B,] (G,F,)[E,G,] | [A,,A,]3- [A,,A,]2 z |] %16
V:4
 A,>A,A, x3 | x6 | x6 | A,3- A,2 x | A,>A,A, x3 | x6 | x6 | E,>F,E, (D,C,)B,, || x6 | x6 | x6 | %11
 x6 | x6 | x6 | x3 E,2 x | x6 |] %16

